Origami/24x24/apps/teamviewer.svg

<svg width="24" height="24" version="1" xmlns="http://www.w3.org/2000/svg">
 <rect transform="matrix(0,-1,-1,0,0,0)" x="-22.5" y="-23" width="21" height="21" rx="1.05" ry="1.05" style="opacity:.2"/>
 <rect transform="matrix(0,-1,-1,0,0,0)" x="-22" y="-23" width="21" height="21" rx="1.05" ry="1.05" style="fill:#4e91d9"/>
 <path d="m12.5 3.5000004c-4.6944202 0-8.4999998 3.8055794-8.5 8.4999996 0 4.69442 3.8055796 8.5 8.5 8.5 4.69442 0 8.5-3.80558 8.5-8.5 0-4.6944202-3.80558-8.4999996-8.5-8.4999996zm-2.5 5.1999998v1.7999998h5v-1.7999998l5 3.2999998-5 3.3v-1.8h-5v1.8l-5-3.3z" style="opacity:.2"/>
 <path d="m12.5 3c-4.6944204 0-8.5 3.8055796-8.5 8.5 0 4.69442 3.8055796 8.5 8.5 8.5 4.69442 0 8.5-3.80558 8.5-8.5 0-4.6944204-3.80558-8.5-8.5-8.5zm-2.5 5.1999998v1.8000002h5v-1.8000002l5 3.3000002-5 3.3v-1.8h-5v1.8l-5-3.3z" style="fill:#ffffff"/>
 <path d="M 3.0507812 1 C 2.4690813 1 2 1.4690813 2 2.0507812 L 2 2.5507812 C 2 1.9690813 2.4690813 1.5 3.0507812 1.5 L 21.949219 1.5 C 22.530919 1.5 23 1.9690813 23 2.5507812 L 23 2.0507812 C 23 1.4690813 22.530919 1 21.949219 1 L 3.0507812 1 z" style="fill:#ffffff;opacity:.2"/>
</svg>

<svg xmlns="http://www.w3.org/2000/svg" width="24" height="24" version="1">
 <rect width="21" height="21" x="-22.5" y="-23" rx="1.05" ry="1.05" transform="matrix(0,-1,-1,0,0,0)" style="opacity:0.2"/>
 <rect style="fill:#4e91d9" width="21" height="21" x="-22" y="-23" rx="1.05" ry="1.05" transform="matrix(0,-1,-1,0,0,0)"/>
 <path d="M 12.5,3.5000004 C 7.8055798,3.5000004 4.0000002,7.3055798 4,12 4,16.69442 7.8055796,20.5 12.5,20.5 17.19442,20.5 21,16.69442 21,12 21,7.3055798 17.19442,3.5000004 12.5,3.5000004 Z M 10,8.7000002 10,10.5 15,10.5 15,8.7000002 20,12 l -5,3.3 0,-1.8 -5,0 0,1.8 L 5,12 Z" style="opacity:0.2"/>
 <path style="fill:#ffffff" d="M 12.5,3 C 7.8055796,3 4,6.8055796 4,11.5 4,16.19442 7.8055796,20 12.5,20 17.19442,20 21,16.19442 21,11.5 21,6.8055796 17.19442,3 12.5,3 Z M 10,8.1999998 10,10 15,10 15,8.1999998 20,11.5 l -5,3.3 0,-1.8 -5,0 0,1.8 -5,-3.3 z"/>
 <path style="fill:#ffffff;opacity:0.2" d="M 3.0507812 1 C 2.4690813 1 2 1.4690813 2 2.0507812 L 2 2.5507812 C 2 1.9690813 2.4690813 1.5 3.0507812 1.5 L 21.949219 1.5 C 22.530919 1.5 23 1.9690813 23 2.5507812 L 23 2.0507812 C 23 1.4690813 22.530919 1 21.949219 1 L 3.0507812 1 z"/>
</svg>
